X: 3088
T: Bear Dance, The
R: polka
M: 2/4
K: Aminor
|:eA A/B/c/d/|eA A>B|cc Bc|dd cd|
eA eA|eA A>B|cc B/A/G|A2 A2:|
|:A>c Ac-|cG G2|A>c Ac-|cd d2|
ee dd|cc B2|A/B/c BG|A2 A2:|
|:e/f/e/d/ c/d/c/B/|A/B/c/d/ eB|cc Bc|dd cd|
e/f/e/d/ c/d/c/B/|A/B/c/d/ eB|cc B/A/G|AA A2:|

